svg/phone_remove.svg

<svg xmlns="http://www.w3.org/2000/svg" viewBox="0 0 24 24"><path d="M4 3c-.6 0-1 .4-1 1 0 9.4 7.6 17 17 17 .6 0 1-.4 1-1v-3.5c0-.6-.4-1-1-1-1.2 0-2.5-.2-3.6-.6-.4-.1-.7 0-1 .2l-2.2 2.2c-2.8-1.4-5.1-3.8-6.6-6.6l2.2-2.2c.3-.3.4-.7.2-1-.3-1.1-.5-2.3-.5-3.5 0-.6-.4-1-1-1m11.6.5L17 5.6l-2.1-2.1-1.4 1.4L15.6 7l-2.1 2.1 1.4 1.4L17 8.4l2.1 2.1 1.4-1.4L18.4 7l2.1-2.1"/></svg>

<?xml version="1.0" encoding="UTF-8"?><!DOCTYPE svg PUBLIC "-//W3C//DTD SVG 1.1//EN" "http://www.w3.org/Graphics/SVG/1.1/DTD/svg11.dtd"><svg xmlns="http://www.w3.org/2000/svg" xmlns:xlink="http://www.w3.org/1999/xlink" version="1.1" id="mdi-phone-remove" width="24" height="24" viewBox="0 0 24 24"><path d="M4 3C3.4 3 3 3.4 3 4C3 13.4 10.6 21 20 21C20.6 21 21 20.6 21 20V16.5C21 15.9 20.6 15.5 20 15.5C18.8 15.5 17.5 15.3 16.4 14.9C16 14.8 15.7 14.9 15.4 15.1L13.2 17.3C10.4 15.9 8.1 13.5 6.6 10.7L8.8 8.5C9.1 8.2 9.2 7.8 9 7.5C8.7 6.4 8.5 5.2 8.5 4C8.5 3.4 8.1 3 7.5 3M19.1 3.5L17 5.6L14.9 3.5L13.5 4.9L15.6 7L13.5 9.1L14.9 10.5L17 8.4L19.1 10.5L20.5 9.1L18.4 7L20.5 4.9" /></svg>
